app/dist/common/images/monopar-therapeutics.svg

<svg height="18" viewBox="0 0 18 18" width="18" xmlns="http://www.w3.org/2000/svg"><path d="m0 0h18v18h-18z" fill="#f0f3fa"/><path d="m9 3-2.42 4.44 4.89-.17-2.48-4.27z" fill="#684c96"/><path d="m6.35 7.5h5.43l-2.78-4.5zm.91-.5h3.6l-1.87-3.16z" fill-rule="evenodd"/><path d="m8 13h-5l3.12-4.44h1.88z" fill="#bd0100"/><path d="m8.5 13h-5.5l2.91-4.5h2.59zm-.5-4h-1.89l-2.18 3.5h4.07z"/><path d="m10.5 13h4.26l-2.88-4.44h-1.38z" fill="#bd0100"/><path d="m10 13h5l-2.82-4.5h-2.18zm.5-4h1.48l2.2 3.5h-3.68z"/></svg>

<!-- by TradingView --><svg width="18" height="18" viewBox="0 0 18 18" xmlns="http://www.w3.org/2000/svg"><path fill="#F0F3FA" d="M0 0h18v18H0z"/><path d="M9 3 6.58 7.44l4.89-.17L8.99 3Z" fill="#684C96"/><path fill-rule="evenodd" d="M6.35 7.5h5.43L9 3 6.35 7.5Zm.91-.5h3.6L8.99 3.84 7.26 7Z"/><path d="M8 13H3l3.12-4.44H8V13Z" fill="#BD0100"/><path d="M8.5 13H3l2.91-4.5H8.5V13ZM8 9H6.11l-2.18 3.5H8V9Z"/><path d="M10.5 13h4.26l-2.88-4.44H10.5V13Z" fill="#BD0100"/><path d="M10 13h5l-2.82-4.5H10V13Zm.5-4h1.48l2.2 3.5H10.5V9Z"/></svg>
